icon-themes/sifr_svg/cmd/lc_text_marquee.svg

<svg viewBox="0 0 24 24" xmlns="http://www.w3.org/2000/svg"><path d="m3 2c-.554 0-1 .3794493-1 1v3h2v-2h5.5c.276142 0 .5.2238576.5.5v9.5h4v-9.5c0-.2761424 0-.5.5-.5h5.5v2h2v-3c0-.554-.446-1-1-1zm4 10c-.26529 0-.53057.09304-.71875.28125l-4 4-.28125.28125v.875l.28125.28125 4 4c.18817.18814.45344.28122.71875.28125h1v-1c0-.2653-.0931-.53058-.28125-.71875l-2.28125-2.28125h6.5625 6.5625l-2.28125 2.28125c-.18815.18817-.28125.45345-.28125.71875v1h1c.26531-.00003.53058-.09311.71875-.28125l4-4 .28125-.28125v-.875l-.28125-.28125-4-4c-.18818-.18821-.45346-.28125-.71875-.28125h-1v1c-.00004.26531.09314.53057.28125.71875l2.28125 2.28125h-6.5625-6.5625l2.28125-2.28125c.18811-.18818.28125-.45344.28125-.71875v-1z" fill="#555753"/></svg>

<svg xmlns="http://www.w3.org/2000/svg" viewBox="0 0 24 24">
  <path
     style="fill:#555753"
     d="M 3 2 C 2.446 2 2 2.3794493 2 3 L 2 6 L 4 6 L 4 4 L 9.5 4 C 9.776142 4 10 4.2238576 10 4.5 L 10 14 L 14 14 L 14 4.5 C 14 4.2238576 14 4 14.5 4 L 20 4 L 20 6 L 22 6 L 22 3 C 22 2.446 21.554 2 21 2 L 3 2 z M 7 12 C 6.73471 12 6.46943 12.09304 6.28125 12.28125 L 2.28125 16.28125 L 2 16.5625 L 2 17.4375 L 2.28125 17.71875 L 6.28125 21.71875 C 6.46942 21.90689 6.73469 21.99997 7 22 L 8 22 L 8 21 C 8 20.7347 7.9069 20.46942 7.71875 20.28125 L 5.4375 18 L 12 18 L 18.5625 18 L 16.28125 20.28125 C 16.0931 20.46942 16 20.7347 16 21 L 16 22 L 17 22 C 17.26531 21.99997 17.53058 21.90689 17.71875 21.71875 L 21.71875 17.71875 L 22 17.4375 L 22 16.5625 L 21.71875 16.28125 L 17.71875 12.28125 C 17.53057 12.09304 17.26529 12 17 12 L 16 12 L 16 13 C 15.99996 13.26531 16.09314 13.53057 16.28125 13.71875 L 18.5625 16 L 12 16 L 5.4375 16 L 7.71875 13.71875 C 7.90686 13.53057 8 13.26531 8 13 L 8 12 L 7 12 z "
     />
</svg>
